X: 7
T:V\aarvinder friske
M:3/4
L:1/8
Q:224
C:anon.
O:Sweden or Norway
Z:Transcribed by Frank Nordberg - http://www.musicaviva.com
K:Gm
G2G>A G>A|B2B>c B>c|d2d>c A>B|[1G2G>^FD2:|[2G2 G>^FG2||
d2d>B f>d|c2c>BA2|B2B>G d>B|A2A>^FD2|
G2G>A G>A|B2B>c B>c|d2d>c A>B|G4 z2|]
W:
W: From "Falaleiro" http://home.t-online.de/home/pheld/homepage.htm

